assets/giphy/mono.svg

<svg viewBox="0 0 24 24" xmlns="http://www.w3.org/2000/svg"><path d="m2.666 0v24h18.668v-15.334l-2.668 2.668v10h-13.332v-18.666h4.666l2.666-2.668zm10.668 0v8h8v-2.666h-2.668v-2.666h-2.666v-2.668"/></svg>

<svg xmlns="http://www.w3.org/2000/svg" viewBox="0 0 24 24"><path d="M2.666 0v24h18.668V8.666l-2.668 2.668v10H5.334V2.668H10L12.666 0zm10.668 0v8h8V5.334h-2.668V2.668H16V0"/></svg>
